!!!OTL: ES WAR EINMAL EIN MUELLERIN
!!!ARE: Europa, Mitteleuropa, Deutschland, Taunus; Elsass
!!!SCT: E0156A
!!!YEM: Copyright 1995, estate of Helmut Schaffrath.
**kern
*ICvox
*Ivox
*M2/4
*k[b-]
*F:
{8c
=1
8.f
16g
8a
8b-
=2
8.cc
16dd
8cc}
{8a
=3
8.b-
16a
8b-
8cc
=4
4a
8r}
{16f
16a
=5
8cc
8a
8cc
8a
=6
8cc
8ff
8dd}
{8cc
=7
8b-
8g
8b-
8g
=8
8b-
8dd
8cc}
{8b-
=9
8.a
16g
8a
8b-
=10
8cc
8ff
8ee}
{8dd
=11
8.cc
16a
8b-
8cc
=12
4a
8r}
==
!!!AGN: erzaehlendes Volks - Lied, Scherz, Schwank, Ballade ?
!!!ONB: ESAC (Essen Associative Code) Database: ERK1
!!!AMT: simple duple
!!!AIN: vox
!!!EED: Helmut Schaffrath
!!!EEV: 1.0
*-
